Paper/16x16/apps/calendar-blue-31.svg

<svg height="16" width="16" xmlns="http://www.w3.org/2000/svg"><path d="m11 0v5h5v-3s0-2-2-2z" fill="#2196f3"/><path d="m11 5v6h5v-6z" fill="#03a9f4"/><path d="m11 0h-9s-2 0-2 2v12s0 2 2 2h4l5-5z" fill="#e6e6e6"/><path d="m6 16v-3s0-2 2-2h3z" fill="#b3b3b3"/><path d="m2 2.5h1.5s1 0 1 1-1 1-1 1 1 0 1 1-1.1 1-1.1 1h-1.4m0-2h1.5" fill="none" stroke="#3f51b5"/><path d="m6.5 2-.5 1h1v4h1v-5zm4.5 9-5 5h8s2 0 2-2v-3z" fill="#3f51b5"/></svg>

<?xml version="1.0" encoding="UTF-8" standalone="no"?>
<svg
   xmlns:dc="http://purl.org/dc/elements/1.1/"
   xmlns:cc="http://creativecommons.org/ns#"
   xmlns:rdf="http://www.w3.org/1999/02/22-rdf-syntax-ns#"
   xmlns:svg="http://www.w3.org/2000/svg"
   xmlns="http://www.w3.org/2000/svg"
   xmlns:sodipodi="http://sodipodi.sourceforge.net/DTD/sodipodi-0.dtd"
   xmlns:inkscape="http://www.inkscape.org/namespaces/inkscape"
   height="16"
   width="16"
   id="svg2"
   version="1.1"
   inkscape:version="0.91 r13725"
   sodipodi:docname="calendar-blue-31.svg">
  <metadata
     id="metadata22">
    <rdf:RDF>
      <cc:Work
         rdf:about="">
        <dc:format>image/svg+xml</dc:format>
        <dc:type
           rdf:resource="http://purl.org/dc/dcmitype/StillImage" />
        <dc:title></dc:title>
      </cc:Work>
    </rdf:RDF>
  </metadata>
  <defs
     id="defs20" />
  <sodipodi:namedview
     pagecolor="#ffffff"
     bordercolor="#666666"
     borderopacity="1"
     objecttolerance="10"
     gridtolerance="10"
     guidetolerance="10"
     inkscape:pageopacity="0"
     inkscape:pageshadow="2"
     inkscape:window-width="640"
     inkscape:window-height="480"
     id="namedview18"
     showgrid="false"
     inkscape:zoom="18.5"
     inkscape:cx="8.5405405"
     inkscape:cy="8"
     inkscape:current-layer="svg2" />
  <path
     d="m11 0v5h5v-3s0-2-2-2z"
     fill="#2196f3"
     id="path4" />
  <path
     d="m11 5v6h5v-6z"
     fill="#03a9f4"
     id="path6" />
  <path
     d="m11 0h-9s-2 0-2 2v12s0 2 2 2h4l5-5z"
     fill="#e6e6e6"
     id="path10" />
  <path
     d="m6 16v-3s0-2 2-2h3z"
     fill="#b3b3b3"
     id="path12" />
  <path
     d="m2 2.5h1.5s1 0 1 1-1 1-1 1 1 0 1 1-1.1 1-1.1 1h-1.4m0-2h1.5"
     fill="none"
     stroke="#3f51b5"
     id="path14" />
  <path
     style="fill:#3f51b5"
     d="M 6.5 2 L 6 3 L 7 3 L 7 7 L 8 7 L 8 2 L 6.5 2 z M 11 11 L 6 16 L 14 16 C 14 16 16 16 16 14 L 16 11 L 11 11 z "
     id="path8" />
</svg>
